Adwaita++-Dark/status/symbolic/alarm-symbolic.svg

<svg height="16" width="16" xmlns="http://www.w3.org/2000/svg">
  <path d="m4.5 0a3.5 3.5 0 0 0 -3.5 3.5 3.5 3.5 0 0 0 .2344 1.2559c1.2521-1.9866 3.3472-3.3881 5.7812-3.6895a3.5 3.5 0 0 0 -2.5156-1.0664zm7 0a3.5 3.5 0 0 0 -2.5117 1.0664c2.4317.3023 4.5237 1.7032 5.7757 3.6875a3.5 3.5 0 0 0 .236-1.2539 3.5 3.5 0 0 0 -3.5-3.5zm-3.5 2a7 7 0 0 0 -7 7 7 7 0 0 0 1.6465 4.51 7 7 0 0 0 .4609.496 1 1 0 0 0 -.8144.287 1 1 0 0 0 0 1.414 1 1 0 0 0 1.414 0 1 1 0 0 0 .2461-1.006 7 7 0 0 0 .5899.375 7 7 0 0 0 .5957.303 7 7 0 0 0 .0566.025 7 7 0 0 0 .5371.209 7 7 0 0 0 .1699.057 7 7 0 0 0 .4883.135 7 7 0 0 0 .1934.043 7 7 0 0 0 .4844.082 7 7 0 0 0 .2246.027 7 7 0 0 0 .5215.037 7 7 0 0 0 .1855.006 7 7 0 0 0 .6992-.035 7 7 0 0 0 3.3238-1.242 7 7 0 0 0 .022-.014 1 1 0 0 0 .248.998 1 1 0 0 0 1.414 0 1 1 0 0 0 0-1.414 1 1 0 0 0 -.826-.285 7 7 0 0 0 .445-.479 7 7 0 0 0 .031-.033 7 7 0 0 0 .012-.016 7 7 0 0 0 .369-.486 7 7 0 0 0 .059-.08 7 7 0 0 0 .295-.482 7 7 0 0 0 .072-.127 7 7 0 0 0 .236-.493 7 7 0 0 0 .065-.142 7 7 0 0 0 .168-.463 7 7 0 0 0 .072-.219 7 7 0 0 0 .113-.441 7 7 0 0 0 .053-.235 7 7 0 0 0 .067-.4487 7 7 0 0 0 .031-.2539 7 7 0 0 0 .031-.6094 7 7 0 0 0 -7-7zm0 2a5 5 0 0 1 5 5 5 5 0 0 1 -5 5 5 5 0 0 1 -5-5 5 5 0 0 1 .0254-.5 5 5 0 0 1 4.9746-4.5zm2.49 1.9961a.50005.50005 0 0 0 -.344.1504l-2.146 2.1465-1.6465-1.6465a.50005.50005 0 1 0 -.707.707l2 2a.50005.50005 0 0 0 .707 0l2.5005-2.5a.50005.50005 0 0 0 -.364-.8574z" fill="#e6ddff"/>
</svg>

<svg xmlns="http://www.w3.org/2000/svg" width="16" height="16" version="1.1">
 <path style="fill:#E6DDFF" d="M 4.5,0 A 3.5,3.5 0 0 0 1,3.5 3.5,3.5 0 0 0 1.2344,4.7559 C 2.4865,2.7693 4.5816,1.3678 7.0156,1.0664 A 3.5,3.5 0 0 0 4.5,0 Z M 11.5,0 A 3.5,3.5 0 0 0 8.9883,1.0664 C 11.42,1.3687 13.512,2.7696 14.764,4.7539 A 3.5,3.5 0 0 0 15,3.5 3.5,3.5 0 0 0 11.5,0 Z M 8,2 A 7,7 0 0 0 1,9 7,7 0 0 0 2.6465,13.51 7,7 0 0 0 3.1074,14.006 1,1 0 0 0 2.293,14.293 1,1 0 0 0 2.293,15.707 1,1 0 0 0 3.707,15.707 1,1 0 0 0 3.9531,14.701 7,7 0 0 0 4.543,15.076 7,7 0 0 0 5.1387,15.379 7,7 0 0 0 5.1953,15.404 7,7 0 0 0 5.7324,15.613 7,7 0 0 0 5.9023,15.67 7,7 0 0 0 6.3906,15.805 7,7 0 0 0 6.584,15.848 7,7 0 0 0 7.0684,15.93 7,7 0 0 0 7.293,15.957 7,7 0 0 0 7.8145,15.994 7,7 0 0 0 8,16 7,7 0 0 0 8.6992,15.965 7,7 0 0 0 12.023,14.723 7,7 0 0 0 12.045,14.709 1,1 0 0 0 12.293,15.707 1,1 0 0 0 13.707,15.707 1,1 0 0 0 13.707,14.293 1,1 0 0 0 12.881,14.008 7,7 0 0 0 13.326,13.529 7,7 0 0 0 13.357,13.496 7,7 0 0 0 13.369,13.48 7,7 0 0 0 13.738,12.994 7,7 0 0 0 13.797,12.914 7,7 0 0 0 14.092,12.432 7,7 0 0 0 14.164,12.305 7,7 0 0 0 14.4,11.812 7,7 0 0 0 14.465,11.67 7,7 0 0 0 14.633,11.207 7,7 0 0 0 14.705,10.988 7,7 0 0 0 14.818,10.547 7,7 0 0 0 14.871,10.312 7,7 0 0 0 14.938,9.8633 7,7 0 0 0 14.969,9.6094 7,7 0 0 0 15,9 7,7 0 0 0 8,2 Z M 8,4 A 5,5 0 0 1 13,9 5,5 0 0 1 8,14 5,5 0 0 1 3,9 5,5 0 0 1 3.0254,8.5 5,5 0 0 1 8,4 Z M 10.49,5.9961 A 0.50005,0.50005 0 0 0 10.146,6.1465 L 8,8.293 6.3535,6.6465 A 0.50005,0.50005 0 1 0 5.6465,7.3535 L 7.6465,9.3535 A 0.50005,0.50005 0 0 0 8.3535,9.3535 L 10.854,6.8535 A 0.50005,0.50005 0 0 0 10.49,5.9961 Z"/>
</svg>
